!!!COA:	Josquin des Prez
!!!CDT:	~1450-1521/08/27
!!!OPR:	Missa Di dadi
!!!ONM:	2
!!!OTL:	Gloria
!!!AGN:	Mass; Gloria
!!!SCT:	NJE 9.3
!!!SCA:	New Josquin Edition 9.3
!!!voices:	4
!!!voices-OPR:	4
**kern	**kern	**kern	**kern
*staff4	*staff3	*staff2	*staff1
*Ivox	*Ivox	*Ivox	*Ivox
*I"Bassus	*I"Tenor	*I"Altus	*I"Superius
*I'B	*I'T	*I'A	*I'S
*clefF4	*clefGv2	*clefGv2	*clefG2
*k[b-]	*k[b-]	*k[b-]	*k[b-]
*	*rscale:1/4	*	*
*M3/1	*M6/0	*M3/1	*M3/1
*met(O)	*met(O)	*met(O)	*met(O)
!!primary-mensuration: met(O)
!!!OMD: Et in terra pax
!!section: Et in terra pax
=1-	=1-	=1-	=1-
!	!LO:TX:Z=10:t=Canon&colon; Two dice with faces four over one	!	!
!	!LO:N:vis=1	!	!
0.r	0.r	1.G	0g
.	.	2A/	.
.	.	1B-	1g
=2	=2-	=2	=2
0.r	1ryy	1c	1e
!	!LO:N:vis=1	!	!
.	0r	1A	1.f
.	.	[1d	.
.	.	.	4g/
.	.	.	4a/
=3	=3-	=3	=3
0.r	0ryy	1d]	1.b-
.	.	0G	.
.	.	.	4a/
.	.	.	4g/
!	!LO:N:vis=1	!	!
.	1r	.	1b-
=4	=4-	=4	=4
0.r	0.ryy	0c	2a/
.	.	.	1g
.	.	.	2f/
.	.	1c	1e
=5	=5	=5	=5
!	!LO:N:vis=1	!	!
0.GG	0.r	1.B-	1d
.	.	.	2d/
.	.	2A/	1d
.	.	1G	.
.	.	.	2c/
=6	=6-	=6	=6
0D	1ryy	0F	2.B-/
.	.	.	4A/
!	!LO:N:vis=1	!	!
.	0r	.	2A/
.	.	.	2d/
2AA/	.	1F	2c/
[2D\	.	.	2d/
=7	=7-	=7	=7
1D]	0ryy	1F	2.A/
.	.	.	4B-/
2AA/	.	2E/	2c/
2.D\	.	2D/	2d/
!	!LO:N:vis=1	!	!
.	1r	2.F/	2A/
4C/	.	.	.
4BB-/	.	.	[2d/
4AA/	.	4G/	.
=8	=8-	=8	=8
2GG/	0.ryy	2B-\	2d/]
2AA/	.	1A	1c
2FF/	.	.	.
2GG/	.	1G	2B-/
1D	.	.	1A
.	.	2F#i/	.
=9	=9	=9	=9
!	!LO:N:vis=1	!	!
1GG	[y0.G	0G	1G
0C	.	.	2r
.	.	.	1e
.	.	2r	.
.	.	2G/	2e/
=10	=10-	=10	=10
1C	1G]yy	2G/	1e
.	.	4E/	.
.	.	4F/	.
0GG	0B-	1G	1d
.	.	2G/	2d/
.	.	2G/	2d/
=11	=11-	=11	=11
1C	0c	2G/	2e/
.	.	2G/	2e/
2AA/	.	2A/	1e
2C/	.	2E/	.
!	!LO:N:vis=1	!	!
2BB-/	[y1d	2F/	2d/
2GG/	.	2G/	[2b-\
=12	=12-	=12	=12
2.BB-/	0.d]yy	1D	2b-\]
.	.	.	4a/
4C/	.	.	4g/
1.D	.	1.A	1f
.	.	.	1r
2GG/	.	2G/	.
=13	=13	=13	=13
0GG	0r	0.G	1b-
.	.	.	2a/
.	.	.	1g
!	!LO:N:vis=2	!	!
[1GG	[y1B-	.	.
.	.	.	4f/
.	.	.	4e/
=14	=14-	=14	=14
1GG]	1B-]yy	0G	2d/
.	.	.	2.e-i/
0E-	0G	.	.
.	.	.	4d/
.	.	.	2B-/
.	.	1C	1c
=15	=15-	=15	=15
0D	0A	0F	0d
!	!LO:N:vis=1	!	!
1GG	[y1B-	1G	[1d
=16	=16-	=16	=16
2D\	0.B-]yy	2D/	2d/]
2GG/	.	2G/	2d/
2D\	.	2D/	1d
2GG/	.	2G/	.
1D	.	1F	1d
=17	=17	=17	=17
1C	0c	1G	1e
1.F	.	1.A	1.f
!	!LO:N:vis=1	!	!
.	[y1d	.	.
2BB-/	.	2D/	4e/
.	.	.	4d/
=18	=18-	=18	=18
0BB-	0.d]yy	1D	0.f
.	.	2B-\	.
.	.	2F/	.
1BB-	.	2.B-\	.
.	.	4c\	.
=19	=19-	=19	=19
1GG	0B-	0.d	1r
0D	.	.	1r
!	!LO:N:vis=1	!	!
.	[y1A	.	1f
=20	=20-	=20	=20
1r	0.A]yy	0.D	2f/
.	.	.	2g/
0F	.	.	1.a
.	.	.	4g/
.	.	.	4a/
=21	=21	=21	=21
!	!LO:N:vis=1	!	!
1G	[y0.G	0d	1.b-
1.B-	.	.	.
.	.	.	1g
.	.	1d	.
4A\	.	.	4f/
4G\	.	.	4e/
=22	=22-	=22	=22
1B-	1G]yy	1d	1d
!	!LO:N:vis=1	!	!
1.A	[y0F	0D	1r
.	.	.	1a
2D\	.	.	.
=23	=23-	=23	=23
[0.D	0F]yy	0.d	1a
.	.	.	1.a
!	!LO:N:vis=2	!	!
.	[y1A	.	.
.	.	.	2f/
=24	=24-	=24	=24
1D]	1A]yy	0d	1f
0G	0B-	.	0g
.	.	1d	.
=25	=25	=25	=25
1F	0c	2A/	1.a
.	.	1c	.
2C/	.	.	.
1E-i	.	4B-\	1g
.	.	4A/	.
!	!LO:N:vis=2	!	!
.	[y1B-	[1G	.
4D\	.	.	4f/
4C/	.	.	4e/
=26	=26-	=26	=26
1.BB-	1B-]yy	2G/]	1.d
.	.	4F/	.
.	.	4E/	.
!	!LO:N:vis=1	!	!
.	[y0G	2D/	.
1C	.	2C/	1e-i
.	.	[1E-	.
4BB-/	.	.	4d/
4AA/	.	.	4c/
=27	=27-	=27	=27
2GG/	0G]yy	2E-/]	1B-
1BB-	.	2D/	.
.	.	1D	1b-
4AA/	.	.	.
4GG/	.	.	.
!	!LO:N:vis=1	!	!
1FF	[y1A	2.F/	2a/
.	.	.	[2cc\
.	.	4G/	.
=28	=28-	=28	=28
2FF/	0.A]yy	2A/	4cc\]
.	.	.	4b-\
2.F\	.	2D/	2.a/
.	.	2F/	.
4E\	.	.	4g/
2C/	.	2E/	1g
1D	.	2D/	.
.	.	[2d\	2f#i/
=29	=29	=29	=29
!	!LO:N:vis=00	!	!
[0.GGl	[0.Gl	4d\]	[0.gl
.	.	4c\	.
.	.	2.B-\	.
.	.	4A/	.
.	.	1G	.
.	.	4F/	.
.	.	4E/	.
*	*rscale:1	*	*
=30	=30-	=30	=30
0.GG]	0.G]	0.Dl	0.g]
!!LO:LB:i:g=z
=31||	=31||	=31||	=31||
*>B	*>B	*>B	*>B
*clefF4	*clefGv2	*clefGv2	*clefG2
*k[b-]	*k[b-]	*k[b-]	*k[b-]
*M2/1	*M2/1	*M2/1	*M2/1
*met(C|)	*met(C|)	*met(C|)	*met(C|)
!!!OMD: Domine deus, rex celestis
!!section: Domine deus, rex celestis
0r	0r	0D	0r
=32	=32	=32	=32
0D	0r	1D	0r
.	.	[1F	.
=33	=33	=33	=33
1D	0r	2F/]	0d
.	.	4G/	.
.	.	4A/	.
[1BB-	.	[1B-	.
=34	=34	=34	=34
2BB-/]	0r	1B-]	1d
2C/	.	.	.
[1D	.	1A	[1f
=35	=35	=35	=35
1D]	0r	0d	2f/]
.	.	.	4g/
.	.	.	4a/
[1GG	.	.	[1b-
=36	=36	=36	=36
1GG]	0r	1G	1b-]
[1D	.	1A	[1a
=37	=37	=37	=37
1D]	0r	0B-	2a/]
.	.	.	2g/
1E	.	.	[1g
=38	=38	=38	=38
0F	0r	0A	2g/]
.	.	.	4a/
.	.	.	4b-\
.	.	.	1cc
=39	=39	=39	=39
1BB-	0r	0d	1b-
[1F	.	.	[1a
=40	=40	=40	=40
2F\]	0r	1c	2a/]
2E\	.	.	2g/
[1G	.	1B-	[1g
=41	=41	=41	=41
2G\]	0r	0A	1g]
4F\	.	.	.
4E\	.	.	.
1F	.	.	1c
=42	=42	=42	=42
1G	0r	0G	1B-
[1C	.	.	[1e-i
=43	=43	=43	=43
1C]	0r	1G	2e-/]
.	.	.	2d/
[1D	.	1F	[1d
=44	=44	=44	=44
2D\]	0r	1.B-	1d]
2BB-/	.	.	.
1E-i	.	.	1g
.	.	2c\	.
=45	=45	=45	=45
1D	0r	0d	1f
1G	.	.	[1b-
=46	=46	=46	=46
1A	0r	1c	2b-\]
.	.	.	2a/
1F	.	1A	[1a
=47	=47	=47	=47
0G	0r	0B-	1a]
.	.	.	1d
=48	=48	=48	=48
1C	0r	0A	1e
[1D	.	.	[1f
=49	=49	=49	=49
1D]	0r	0d	2f/]
.	.	.	4e/
.	.	.	4d/
1BB-	.	.	1f
=50	=50	=50	=50
1C	0r	0c	1e
1F	.	.	[1a
=51	=51	=51	=51
1G	0r	1B-	2a/]
.	.	.	2g/
1E	.	1G	[1g
=52	=52	=52	=52
0D	0r	0A	1g]
.	.	.	1f
=53	=53	=53	=53
1r	0r	0G	2e/
.	.	.	1d
1GG	.	.	.
.	.	.	4c/
.	.	.	4B-/
=54	=54	=54	=54
2BB-/	0r	0F	2d/
2AA/	.	.	2c/
1D	.	.	2A/
.	.	.	[2d/
=55	=55	=55	=55
1GG	0r	0G	2d/]
.	.	.	1G
1G	.	.	.
.	.	.	[2B-/
=56	=56	=56	=56
1F	0r	1D	2B-/]
.	.	.	1A
1A	.	1F	.
.	.	.	[2d/
=57	=57	=57	=57
1G	0r	1E	2d/]
.	.	.	1c
1c	.	1A	.
.	.	.	[2f/
=58	=58	=58	=58
*M3/3%2	*	*	*
*met(3/2)	*	*	*
3B-\	0r	1G	2f/]
3G\	.	.	.
.	.	.	1e
3B-\	.	.	.
3%2A	.	1c	.
.	.	.	[2a/
3F\	.	.	.
=59	=59	=59	=59
3G\	0r	1B-	2a/]
3E\	.	.	.
.	.	.	1g
3G\	.	.	.
3C/	.	1e-i	.
3c\	.	.	.
.	.	.	[2cc\
3A\	.	.	.
=60	=60	=60	=60
3%2B-	0r	1d	4cc\]
.	.	.	4b-\
.	.	.	2.b-\
3G\	.	.	.
3A\	.	1c	.
.	.	.	4a/
3.F\	.	.	.
.	.	.	[2a/
6E\	.	.	.
=61	=61	=61	=61
3%2G	0r	2B-\	4a/]
.	.	.	4g/
.	.	2G/	1g
3E\	.	.	.
3F\	.	1A	.
3D\	.	.	.
.	.	.	2f/
3F\	.	.	.
=62	=62	=62	=62
3.E-\	0r	1G	2g/
6F\	.	.	2b-\
3G\	.	.	.
3A\	.	1F	2a/
3F\	.	.	.
.	.	.	[2cc\
3A\	.	.	.
=63	=63	=63	=63
3G\	0r	2G/	4cc\]
.	.	.	4b-\
3E\	.	.	.
.	.	2B-\	4a/
3G\	.	.	.
.	.	.	4g/
3D\	.	1A	2.f#i/
3C/	.	.	.
3D\	.	.	.
.	.	.	4e/
=64	=64	=64	=64
3.E-\	0r	[0Gl	[0gl
6D\	.	.	.
3C/	.	.	.
3BB-/	.	.	.
3%2C	.	.	.
=65	=65	=65	=65
0GGl	0r	0G]	0g]
!!LO:LB:i:g=z
=66||	=66||	=66||	=66||
*>C	*>C	*>C	*>C
*clefF4	*clefGv2	*clefGv2	*clefG2
*k[b-]	*k[b-]	*k[b-]	*k[b-]
*M2/1	*M2/1	*M2/1	*M2/1
*met(C|)	*met(C|)	*met(C|)	*met(C|)
!!!OMD: Domine fili unigenite
!!section: Domine fili unigenite
[0GG	0r	0D	0r
=67	=67	=67	=67
1GG]	0r	1D	0r
1GG	.	1G	.
=68	=68	=68	=68
0C	0r	1G	0r
.	.	[1G	.
=69	=69	=69	=69
1.C	0r	2G/]	0r
.	.	2E/	.
.	.	[1E	.
2AA/	.	.	.
=70	=70	=70	=70
0AA	0r	1E]	0r
.	.	[1c	.
=71	=71	=71	=71
1.F	0r	2c\]	0r
.	.	2A/	.
.	.	[1A	.
2D\	.	.	.
=72	=72	=72	=72
1.D	0r	2A/]	0r
.	.	4B-\	.
.	.	4c\	.
.	.	[1d	.
4E\	.	.	.
4F\	.	.	.
=73	=73	=73	=73
0G	0r	1d]	0r
.	.	[1G	.
=74	=74	=74	=74
1r	0r	2G/]	0r
.	.	2A/	.
[1GG	.	2B-\	.
.	.	2c\	.
=75	=75	=75	=75
2GG/]	0r	1d	0r
2AA/	.	.	.
2BB-/	.	[1D	.
2C/	.	.	.
=76	=76	=76	=76
1.D	0r	2D/]	0r
.	.	2E/	.
.	.	2F/	.
2E\	.	2G/	.
=77	=77	=77	=77
1F	0r	1A	0r
1G	.	1B-	.
=78	=78	=78	=78
1D	0r	2A/	0r
.	.	1d	.
[1B-	.	.	.
.	.	[2G/	.
=79	=79	=79	=79
1B-]	0r	2G/]	0r
.	.	2d\	.
[1A	.	2c\	.
.	.	2f\	.
=80	=80	=80	=80
2A\]	0r	2e\	0r
1B-	.	1d	.
4A\	.	4c\	.
4G\	.	4B-\	.
=81	=81	=81	=81
1.F	0r	2A/	0r
.	.	2d\	.
.	.	2c\	.
[2G\	.	[2B-\	.
=82	=82	=82	=82
2G\]	0r	2B-\]	0r
4F\	.	4A/	.
4E\	.	4G/	.
1D	.	2F/	.
.	.	2B-\	.
=83	=83	=83	=83
1r	0r	2A/	0r
.	.	1G	.
[1GG	.	.	.
.	.	4F/	.
.	.	4E/	.
=84	=84	=84	=84
1GG]	0r	2.D/	0r
.	.	4E/	.
2.D\	.	2.F/	.
4E\	.	4G/	.
=85	=85	=85	=85
2.F\	0r	2.A/	0r
4G\	.	4B-\	.
2A\	.	2c\	.
2D\	.	[2d\	.
=86	=86	=86	=86
2F\	0r	2d\]	0r
2G\	.	4c\	.
.	.	4B-\	.
1E	.	4c\	.
.	.	4B-\	.
.	.	4A/	.
.	.	4G/	.
=87	=87	=87	=87
0Dl	0r	0Fl	0r
!!LO:LB:i:g=z
=88||	=88||	=88||	=88||
*>D	*>D	*>D	*>D
*clefF4	*clefGv2	*clefGv2	*clefG2
*k[b-]	*k[b-]	*k[b-]	*k[b-]
*M2/1	*M2/1	*M2/1	*M2/1
*met(C|)	*met(C|)	*met(C|)	*met(C|)
!!!OMD: Domine deus, agnus dei
!!section: Domine deus, agnus dei
1.F	0r	1r	0r
.	.	1F	.
4E\	.	.	.
4D\	.	.	.
=89	=89	=89	=89
2E\	0r	1G	0r
2C/	.	.	.
[1G	.	[1B-	.
=90	=90	=90	=90
2G\]	0r	2B-\]	1r
4F\	.	4A/	.
4E\	.	4G/	.
1D	.	1A	1f
=91	=91	=91	=91
1GG	0r	1B-	1g
2r	.	[1G	[1b-
2GG/	.	.	.
=92	=92	=92	=92
2BB-/	0r	2G/]	2b-\]
2C/	.	4F/	4a/
.	.	4E/	4g/
2AA/	.	1F	1a
2D\	.	.	.
=93	=93	=93	=93
2GG/	0r	2.G/	1b-
2.G\	.	.	.
.	.	4A/	.
.	.	2B-\	[1g
4F\	.	.	.
4E\	.	[2c\	.
4D\	.	.	.
=94	=94	=94	=94
2.C/	0r	4c\]	2g/]
.	.	4B-\	.
.	.	4A/	4f/
4E\	.	4G/	4e/
1D	.	2A/	1f
.	.	[2B-\	.
=95	=95	=95	=95
2GG/	0r	4B-\]	2.g/
.	.	4A/	.
2C/	.	4G/	.
.	.	4F/	4a/
2BB-/	.	2G/	2b-\
[2AA/	.	[2A/	[2cc\
=96	=96	=96	=96
2AA/]	0r	4A/]	4cc\]
.	.	4G/	4b-\
2.D\	.	4F/	4a/
.	.	4E/	4g/
.	.	[1F	1a
4E\	.	.	.
2F\	.	.	.
=97	=97	=97	=97
1.BB-	0r	1F]	1d
.	.	[1G	1d
4AA/	.	.	.
4GG/	.	.	.
=98	=98	=98	=98
1GG	0r	1G]	1d
1G	.	1C	[1e
=99	=99	=99	=99
2r	0r	1G	2e/]
2GG/	.	.	2d/
2BB-/	.	2F/	[1d
2GG/	.	[2G/	.
=100	=100	=100	=100
1.B-	0r	2G/]	1d]
.	.	4F/	.
.	.	4E/	.
.	.	1D	[1f
4A\	.	.	.
4G\	.	.	.
=101	=101	=101	=101
2A\	0r	2r	1f]
2D\	.	2F/	.
2E\	.	2G/	[1B-
2D\	.	[2B-\	.
=102	=102	=102	=102
1G	0r	2B-\]	1B-]
.	.	4A/	.
.	.	4G/	.
1F	.	1A	1c
=103	=103	=103	=103
2.BB-/	0r	0B-	2.d/
4C/	.	.	4e/
2D\	.	.	2f/
[2E-i\	.	.	[2g/
=104	=104	=104	=104
4E-\]	0r	2.B-\	4g/]
4D\	.	.	4f/
2BB-/	.	.	2d/
.	.	4A/	.
2C/	.	2G/	2e/
[2D\	.	2F/	[2f/
=105	=105	=105	=105
4D\]	0r	1A	4f/]
4C/	.	.	4e/
2AA/	.	.	2.c/
2GG/	.	2B-\	.
.	.	.	4d/
[2C/	.	[2c\	[2e-/
=106	=106	=106	=106
2C/]	0r	2c\]	4e-/]
.	.	.	4d/
2D\	.	1B-	2B-/
2E-i\	.	.	1c
2F\	.	2A/	.
=107	=107	=107	=107
1G	0r	[0B-	1B-
2r	.	.	1f
2D\	.	.	.
=108	=108	=108	=108
2.E-i\	0r	0B-_	2.g/
4F\	.	.	4a/
1G	.	.	[1b-
=109	=109	=109	=109
1GG	0r	0B-]	1b-]
2r	.	.	1f
[2B-\	.	.	.
=110	=110	=110	=110
2B-\]	0r	1E-	1g
4A\	.	.	.
4G\	.	.	.
2F\	.	1D	2a/
[2BB-/	.	.	[2b-\
=111	=111	=111	=111
4BB-/]	0r	2.d\	4b-\]
4C/	.	.	4a/
2D\	.	.	2f/
.	.	4c\	.
2E\	.	2B-\	2g/
[2F\	.	2A/	[2a/
=112	=112	=112	=112
4F\]	0r	2.c\	4a/]
4E\	.	.	4g/
2C/	.	.	2e/
.	.	4B-\	.
2D\	.	2A/	2f/
[2E-i\	.	2G/	[2g/
=113	=113	=113	=113
4E-\]	0r	2.B-\	4g/]
4D\	.	.	4f/
2.BB-/	.	.	2.d/
.	.	4A/	.
.	.	2G/	.
4C/	.	.	4e/
4D\	.	2F/	4f/
4Eni\	.	.	4g/
=114	=114	=114	=114
4F\	0r	4c\	4a/
4G\	.	4B-\	4b-\
4A\	.	4A/	4cc\
4B-\	.	4G/	4dd\
2G\	.	1d	2b-\
[2F\	.	.	[2a/
=115	=115	=115	=115
4F\]	0r	2c\	2a/]
4E\	.	.	.
2G\	.	2B-\	1g
1D	.	1A	.
.	.	.	2f#i/
=116	=116	=116	=116
0GGl	0r	0Gl	0gl
!!LO:LB:i:g=z
=117||	=117||	=117||	=117||
*>E	*>E	*>E	*>E
*clefF4	*clefGv2	*clefGv2	*clefG2
*k[b-]	*k[b-]	*k[b-]	*k[b-]
*	*rscale:1/8	*	*
*M2/1	*M12/0	*M2/1	*M2/1
*met(C2)	*met(O)	*met(C2)	*met(C2)
!!primary-mensuration: met(C2)
!!!OMD: Qui tollis
!!section: Qui tollis
!	!LO:TX:Z=10:X=-40:t=Canon&colon; Two dice with faces four over one	!	!
!	!LO:N:vis=1	!	!
[0BB-	0r	0F	0d
=118	=118-	=118	=118
0BB-]	0ryy	1F	1d
.	.	1G	1d
=119	=119-	=119	=119
0AA	0ryy	1E	1c
.	.	1F	1c
=120	=120-	=120	=120
[0GG	0ryy	[0G	1.B-
.	.	.	2G/
=121	=121-	=121	=121
!	!LO:N:vis=1	!	!
0GG]	0r	1G]	2B-/
.	.	.	2c/
.	.	1D	[1d
=122	=122-	=122	=122
0D	0ryy	1.F	2d/]
.	.	.	2c/
.	.	.	1A
.	.	2G/	.
=123	=123-	=123	=123
1D	0ryy	[0A	1r
1AA	.	.	[1c
=124	=124-	=124	=124
0C	0ryy	1A]	1c]
.	.	1E	1G
=125	=125-	=125	=125
!	!LO:N:vis=1	!	!
0GG	0r	0G	2B-/
.	.	.	2c/
.	.	.	[1d
=126	=126-	=126	=126
1r	0ryy	0D	1d]
[1D	.	.	[1f
=127	=127-	=127	=127
1D]	0ryy	[0A	2f/]
.	.	.	2e/
1C	.	.	[1e
=128	=128-	=128	=128
1D	0ryy	0A]	2e/]
.	.	.	2d/
1F	.	.	[1d
=129	=129	=129	=129
!	!LO:N:vis=1	!	!
0E	0r	0G	2d/]
.	.	.	2c/
.	.	.	1c
=130	=130-	=130	=130
1AA	0ryy	0A	1c
1D	.	.	[1f
=131	=131-	=131	=131
1BB-	0ryy	1D	2f/]
.	.	.	4e/
.	.	.	4d/
1C	.	1C	4e/
.	.	.	4d/
.	.	.	4c/
.	.	.	4B-/
=132	=132-	=132	=132
0D	0ryy	2.F/	1.A
.	.	4G/	.
.	.	[1A	.
.	.	.	2B-/
=133	=133-	=133	=133
!	!LO:N:vis=1	!	!
[0AA	0r	2A/]	2c/
.	.	2B-\	2d/
.	.	2c\	2e/
.	.	[2A/	2f/
=134	=134-	=134	=134
0AA]	0ryy	2A/]	2e/
.	.	2F/	1d
.	.	1E	.
.	.	.	2c#i/
=135	=135-	=135	=135
0BB-	0ryy	2.D/	[0d
.	.	4E/	.
.	.	2F/	.
.	.	[2G/	.
=136	=136-	=136	=136
1GG	0ryy	2G/]	0d]
.	.	4F/	.
.	.	4E/	.
[1D	.	2.F/	.
.	.	4G/	.
=137	=137-	=137	=137
!	!LO:N:vis=1	!	!
1D]	0r	2A/	0r
.	.	1B-	.
1G	.	.	.
.	.	4A/	.
.	.	4G/	.
=138	=138-	=138	=138
1F	0ryy	2.A/	0r
.	.	4B-\	.
2E\	.	2c\	.
2D\	.	[2d\	.
=139	=139-	=139	=139
2F\	0ryy	2d\]	0r
2G\	.	4c\	.
.	.	4B-\	.
[1A	.	4c\	.
.	.	4B-\	.
.	.	4A/	.
.	.	4G/	.
=140	=140-	=140	=140
1A]	0ryy	1F#i	0r
1G	.	[1G	.
=141	=141	=141	=141
!	!LO:N:vis=1	!	!
0C	[y0G	1G]	1r
.	.	[1E	[1c
=142	=142-	=142	=142
1C	0G_yy	1E]	1c]
1C	.	1E	1c
=143	=143-	=143	=143
0C	0G_yy	0E	0c
=144	=144-	=144	=144
0GG	0G]yy	1D	1d
.	.	1D	1d
=145	=145-	=145	=145
!	!LO:N:vis=2	!	!
1GG	[y0B-	1G	1d
1GG	.	1G	1d
=146	=146-	=146	=146
0GG	0B-]yy	0G	0d
=147	=147-	=147	=147
!	!LO:N:vis=2	!	!
[0C	[y0c	1G	1.e
.	.	2.E/	.
.	.	.	2c/
.	.	4F/	.
=148	=148-	=148	=148
0C]	0c]yy	2G/	2e/
.	.	2A/	2f/
.	.	1E	[1g
=149	=149-	=149	=149
!	!LO:N:vis=1	!	!
0GG	[y0d	1D	2g/]
.	.	.	1b-
.	.	1B-	.
.	.	.	4a/
.	.	.	4g/
=150	=150-	=150	=150
[0D	0d_yy	2A/	[0f
.	.	2B-\	.
.	.	2A/	.
.	.	[2B-\	.
=151	=151-	=151	=151
0D]	0d_yy	2B-\]	0f]
.	.	4A/	.
.	.	4G/	.
.	.	1A	.
=152	=152-	=152	=152
1G	0d]yy	0r	1B-
2F\	.	.	2A/
[2G\	.	.	[2B-/
=153	=153	=153	=153
!	!LO:N:vis=2	!	!
2G\]	0r	0r	2B-/]
4F\	.	.	4A/
4E\	.	.	4G/
2.D\	.	.	[1d
4E\	.	.	.
=154	=154-	=154	=154
2F\	0ryy	0r	2d/]
1G	.	.	2B-/
.	.	.	1A
2F#i\	.	.	.
=155	=155-	=155	=155
!	!LO:N:vis=2	!	!
0G	[y0B-	0d	1G
.	.	.	1r
=156	=156-	=156	=156
0r	0B-]yy	1G	0r
.	.	[1d	.
=157	=157-	=157	=157
!	!LO:N:vis=2	!	!
0r	[y0G	2d\]	0r
.	.	4c\	.
.	.	4d\	.
.	.	2e-i\	.
.	.	[2d\	.
=158	=158-	=158	=158
0r	0G]yy	4d\]	0r
.	.	4c\	.
.	.	1B-	.
.	.	4A/	.
.	.	4G/	.
=159	=159-	=159	=159
!	!LO:N:vis=2	!	!
1D	[y0A	1F	1d
2C/	.	1r	2e/
[2D\	.	.	[2f/
=160	=160-	=160	=160
2D\]	0A]yy	0r	2f/]
4C/	.	.	4e/
4BB-/	.	.	4d/
1AA	.	.	1c
=161	=161-	=161	=161
!	!LO:N:vis=1	!	!
0GG	[y0B-	2D/	1r
.	.	2E/	.
.	.	2D/	[1d
.	.	[2G/	.
=162	=162-	=162	=162
0r	0B-_yy	2G/]	1d]
.	.	4F/	.
.	.	4E/	.
.	.	1D	[1d
=163	=163-	=163	=163
2D\	0B-_yy	0r	2d/]
2E\	.	.	2G/
2D\	.	.	2.B-/
[2G\	.	.	.
.	.	.	4c/
=164	=164-	=164	=164
2G\]	0B-]yy	0r	2.d/
4F\	.	.	.
4E\	.	.	4e/
1D	.	.	2.f/
.	.	.	4g/
=165	=165	=165	=165
!	!LO:N:vis=2	!	!
0AA	[y0c	2E/	2e/
.	.	2F/	2A/
.	.	2E/	2.c/
.	.	[2A/	.
.	.	.	4d/
=166	=166-	=166	=166
0r	0c]yy	2A/]	2.e/
.	.	4G/	.
.	.	4F/	4f/
.	.	1E	2.g/
.	.	.	4a/
=167	=167-	=167	=167
!	!LO:N:vis=1	!	!
2.D\	[y0d	1r	2f/
.	.	.	2.d/
4E\	.	.	.
2F\	.	2.D/	.
.	.	.	4c/
2G\	.	.	2B-/
.	.	4E/	.
=168	=168-	=168	=168
2D\	0d_yy	2F/	2A/
2GG/	.	2G/	2G/
2.BB-/	.	2D/	2.d/
.	.	2G/	.
4C/	.	.	4e/
=169	=169-	=169	=169
2.D\	0d_yy	2F/	2.f/
.	.	2B-\	.
4E\	.	.	4g/
2F\	.	2A/	2a/
[2G\	.	[2d\	[2b-\
=170	=170-	=170	=170
1G]	0d]yy	2d\]	2b-\]
.	.	2B-\	1g
1D	.	1A	.
.	.	.	2f#i/
=171	=171-	=171	=171
!	!LO:N:vis=2	!	!
[0GG	[y0B-	[0G	0g
=172	=172-	=172	=172
0GG]	0B-]yy	1G]	1r
.	.	2D/	1g
.	.	2E/	.
=173	=173-	=173	=173
!	!LO:N:vis=1	!	!
0FF	[y0A	0F	2a/
.	.	.	2.cc\
.	.	.	4b-\
.	.	.	[2a/
=174	=174-	=174	=174
0r	0A_yy	0r	2a/]
.	.	.	4g/
.	.	.	4f/
.	.	.	2e/
.	.	.	2f/
=175	=175-	=175	=175
0r	0A_yy	0r	2e/
.	.	.	2.a/
.	.	.	4b-\
.	.	.	[2cc\
=176	=176-	=176	=176
0r	0A]yy	0r	4cc\]
.	.	.	4b-\
.	.	.	4a/
.	.	.	4g/
.	.	.	2.f#i/
.	.	.	4e/
=177	=177	=177	=177
!	!LO:N:vis=1	!	!
1r	[y0G	1r	0g
1GG	.	1D	.
=178	=178-	=178	=178
1C	0G_yy	1E	0r
2BB-/	.	[1D	.
[2GG/	.	.	.
=179	=179-	=179	=179
2GG/]	0G_yy	2D/]	0r
1C	.	2C/	.
.	.	1D	.
2BB-/	.	.	.
=180	=180-	=180	=180
1C	0G]yy	1E	0r
1GG	.	[1D	.
=181	=181-	=181	=181
!	!LO:N:vis=1	!	!
[0D	[y0F	1D]	2A/
.	.	.	2B-/
.	.	2A/	2A/
.	.	2B-\	[2d/
=182	=182-	=182	=182
1D]	0F_yy	2A/	2d/]
.	.	1d	4c/
.	.	.	4B-/
[1D	.	.	1A
.	.	4c\	.
.	.	4B-\	.
=183	=183-	=183	=183
2D\]	0F_yy	2.A/	0r
4C/	.	.	.
4BB-/	.	4B-\	.
2AA/	.	2c\	.
2BB-/	.	2d\	.
=184	=184-	=184	=184
0FF	0F]yy	0A	2c/
.	.	.	2d/
.	.	.	2c/
.	.	.	[2f/
=185	=185-	=185	=185
!	!LO:N:vis=2	!	!
1F	[y0A	0r	2f/]
.	.	.	4e/
.	.	.	4d/
[1F	.	.	1c
=186	=186-	=186	=186
2F\]	0A]yy	0r	0r
4E\	.	.	.
4D\	.	.	.
1C	.	.	.
=187	=187-	=187	=187
!	!LO:N:vis=2	!	!
0BB-	[y0B-	0F	0d
=188	=188-	=188	=188
0GG	0B-]yy	[0G	0d
=189	=189	=189	=189
!	!LO:N:vis=2	!	!
0C	[y0c	1G]	[0e
.	.	2.E/	.
.	.	4F/	.
=190	=190-	=190	=190
0C	0c]yy	2G/	0e]
.	.	2A/	.
.	.	2.E/	.
.	.	4F/	.
=191	=191-	=191	=191
!	!LO:N:vis=2	!	!
0GG	[y0B-	0G	0d
=192	=192-	=192	=192
*M3/3%2	*	*M3/3%2	*M3/3%2
*met(O|3/2)	*	*met(O|3/2)	*met(O|3/2)
!LO:TX:X=-40:Z=10:t=cut circle 3 over 2	!	!LO:TX:X=-40:Z=6:t=cut circle 3 over 2	!LO:TX:X=-40:Z=10:t=cut circle 3 over 2
3%4.r	0B-]yy	3%4.r	3%4G
.	.	.	3%2G
=193	=193-	=193	=193
!	!LO:N:vis=1	!	!
3%2.GG	[y0G	3%2.G	3%2.B-
3AA/	.	3F/	3c/
3%2BB-	.	3%2D	3%2d
=194	=194-	=194	=194
3%2C	0G_yy	3%2C	3%2e-i
3%2BB-	.	3%2D	3%2d
3%2C	.	3%2E	3%2G
=195	=195-	=195	=195
3%4GG	0G_yy	3%2D	3%2r
.	.	3%2r	3%2d
3%2C	.	3%2C	3%2e
=196	=196-	=196	=196
3%2BB-	0G]yy	3%2D	3%2d
3%2C	.	3%2E	3%4g
3%2GG	.	3%2D	.
=197	=197-	=197	=197
!	!LO:N:vis=1	!	!
3%2D	[y0A	3%2.F	3%2f
3%2.F	.	.	3%2.a
.	.	3D/	.
.	.	3.F/	.
3E\	.	.	3g/
.	.	6G/	.
=198	=198-	=198	=198
3%2D	0A_yy	2A/	3%2f
.	.	6B-\	.
3%2C	.	3%2c	3%2e
3%2D	.	3%2F	3d/
.	.	.	3f/
=199	=199-	=199	=199
3%2AA	0A_yy	3%2r	3e/
.	.	.	3%2a
3%4D	.	3.F/	.
.	.	.	3f/
.	.	6G/	.
.	.	3.A/	3d/
.	.	.	3f/
.	.	6B-\	.
=200	=200-	=200	=200
3%2C	0A]yy	3%2c	3e/
.	.	.	3.a/
3%4D	.	3%2A	.
.	.	.	6g/
.	.	.	6f#i/
.	.	.	6e/
.	.	[3%2d	3%2f#i
=201	=201-	=201	=201
!	!LO:N:vis=00	!	!
[0GGl	[0Gl	0d]	[0gl
=202	=202-	=202	=202
*	*	*^	*
0GG]	0G]	0D\l	0d/l	0g]
*	*	*v	*v	*
*	*rscale:1	*	*
==	==	==	==
*-	*-	*-	*-
!!!RDF**kern: l=long note in original notation
!!!RDF**kern: i=editorial accidental
!!!ENC:	Jesse Rodin; Victoria Chang 2012/01/24
!!!END:	2012/01/24/
!!!EED:	Jesse Rodin
!!!EEV: 2013/10/25/
!!attribution-level@Jos: 3 (tricky)
!!!ONB:	Translated from MusicXML and edited on 2012/03/22/ by Craig Sapp
!!muse2ps: T^@{OPR}^u^@{ONM}{. }@{OTL}^C^@{COA}?\n@{SCT}^i2I150v95,90,90,150c130
